!! George Gerswhin, "Drifting Along with the Tide" from
!! "Bumper Book of George Gerswhin,"
!! London: Chappell Music Ltd., 1987; pp.74-77
**kern
*M4/4
*MM[Molto moderato]
!! Verse
=1
2b
4f#
4g#
=2
2e
2e
=3
2b
4f#
4g#
=4
2.e
4r
=5
2ddn
4a
4b
=6
2g
2g
=7
2dd
4a
4b
=8
2.g
4r
=9
4a
4ee
4dd
4cc#
=10
4b
4a
4g
4f#
!! Page 75
=11
(8e
8f#)
4a
4a
4a
=12
1a
=13
4a
4ee
4dd
4ccn
=14
4b
4a
4g
4f#
=15
8e
8f#
4a
4a
4a
=16
1dd
=17
!! Refrain.
!! Slowly.
1d
=18
8e
8f#
8g
[8a
8a]
8b
4cc
=19
1dd
=20
4r
4b
4a
4g
=21
2.b
4g
=22
2.b
4g
=23
1b
!! page 76
=24
4r
4b
4a
4f#
=25
1d
=26
8e
8f#
8g
[8a
8a]
8b
4cc#
=27
1dd
=28
4r
4b
4g
4f#
=29
2.b
4g
=30
2.b
4g
=31
1b
=32
4r
4b
4cc#
4dd#
=33
1ee
=34
8ddn
8ccn
8b
[8a
4a]
4g#
=35
1b
=36
4r
4a
4b
4cc#
=37
1dd
=38
8ccn
8b
8a
[8g
4g]
4f#
!! page 77
=39
4a
4g
4a
4g
=40
4g
4f#
4e
4e-
=41
1d
=42
8e
8f#
8g
[8a
8a]
8b
4cc
=43
1dd
=44
1ee
=45
4r
4ee
4dd
4cc
=46
2b
2a
=47
!! First ending.
[1g
=48
4g]
4r
2r
=17
!! Repeat refrain.
!! Slowly.
1d
=18
8e
8f#
8g
[8a
8a]
8b
4cc
=19
1dd
=20
4r
4b
4a
4g
=21
2.b
4g
=22
2.b
4g
=23
1b
!! page 76
=24
4r
4b
4a
4f#
=25
1d
=26
8e
8f#
8g
[8a
8a]
8b
4cc#
=27
1dd
=28
4r
4b
4g
4f#
=29
2.b
4g
=30
2.b
4g
=31
1b
=32
4r
4b
4cc#
4dd#
=33
1ee
=34
8ddn
8ccn
8b
[8a
4a]
4g#
=35
1b
=36
4r
4a
4b
4cc#
=37
1dd
=38
8ccn
8b
8a
[8g
4g]
4f#
!! page 77
=39
4a
4g
4a
4g
=40
4g
4f#
4e
4e-
=41
1d
=42
8e
8f#
8g
[8a
8a]
8b
4cc
=43
1dd
=44
1ee
=45
4r
4ee
4dd
4cc
=46
2b
2a
=47
!! Second ending.
[1g
=48
1g_
=49
1g_
=50
4g]
4r
2r
====
*-
